packages/kaspersky-hexa-ui-icons/src/iconsSVGs/24/CloudSync.svg

<svg width="24" height="24" viewBox="0 0 24 24" fill="none" xmlns="http://www.w3.org/2000/svg">
<path d="M12 3C9.24265 3 6.68529 4.71909 5.71576 7.62107C4.73057 7.83012 3.8681 8.31487 3.21804 9.04591C2.41871 9.94482 2 11.1484 2 12.5C2 15.062 4.31464 17 6.71992 17H8C7.07451 16.6289 6.38009 15.639 6.15008 14.939C4.94643 14.6798 4 13.6305 4 12.5C4 11.564 4.28511 10.8557 4.71262 10.3749C5.13781 9.89675 5.76295 9.57617 6.57551 9.5144L7.30491 9.45895L7.47296 8.74702C8.03895 6.34926 9.9623 5 12 5C13.6763 5 15.2116 5.8719 16.1047 7.52457L16.3645 8.0054L16.9095 8.04635C18.5173 8.16717 20 9.57896 20 11.5C20 11.5873 19.9968 11.6739 19.9905 11.7597C19.9968 11.839 20 11.9191 20 12V15.1708V15.7422C20.3555 15.5156 20.9186 14.786 21.0647 14.5692C21.6553 13.6925 22 12.6365 22 11.5C22 8.71401 19.9942 6.56536 17.5995 6.12214C16.3284 4.11825 14.2603 3 12 3Z" fill="black"/>
<path d="M10.2929 11.2929C10.6834 10.9024 11.3166 10.9024 11.7071 11.2929L13.7071 13.2929C14.0976 13.6834 14.0976 14.3166 13.7071 14.7071C13.3166 15.0976 12.6834 15.0976 12.2929 14.7071L12 14.4142V20C12 20.5523 11.5523 21 11 21C10.4477 21 10 20.5523 10 20V14.4142L9.70711 14.7071C9.31658 15.0976 8.68342 15.0976 8.29289 14.7071C7.90237 14.3166 7.90237 13.6834 8.29289 13.2929L10.2929 11.2929Z" fill="black"/>
<path d="M17.7071 20.7071L19.7071 18.7071C20.0976 18.3166 20.0976 17.6834 19.7071 17.2929C19.3166 16.9024 18.6834 16.9024 18.2929 17.2929L18 17.5858V12C18 11.4477 17.5523 11 17 11C16.4477 11 16 11.4477 16 12V17.5858L15.7071 17.2929C15.3166 16.9024 14.6834 16.9024 14.2929 17.2929C13.9024 17.6834 13.9024 18.3166 14.2929 18.7071L16.2929 20.7071C16.6834 21.0976 17.3166 21.0976 17.7071 20.7071Z" fill="black"/>
</svg>

<svg xmlns="http://www.w3.org/2000/svg" width="24" height="24" fill="none" viewBox="0 0 24 24"><path fill="#000" fill-rule="evenodd" d="M5.7158 7.621C6.6853 4.719 9.2427 3 12 3c2.2603 0 4.3284 1.1183 5.5995 3.1221C19.9942 6.5654 22 8.7141 22 11.5c0 1.1365-.3447 2.1925-.9353 3.0692-.1461.2168-.7092.9464-1.0647 1.173V12q0-.1213-.0095-.2403A3.6 3.6 0 0 0 20 11.5c0-1.921-1.4827-3.3328-3.0905-3.4536l-.545-.041-.2598-.4808C15.2116 5.8719 13.6764 5 12 5 9.9623 5 8.039 6.3493 7.473 8.747l-.1681.712-.7294.0554c-.8125.0618-1.4377.3823-1.8629.8605C4.2851 10.8557 4 11.564 4 12.5c0 1.1305.9464 2.1798 2.15 2.439.2301.7.9245 1.6899 1.85 2.061H6.72C4.3145 17 2 15.062 2 12.5c0-1.3516.4187-2.5552 1.218-3.4541.6501-.731 1.5126-1.2158 2.4978-1.4248m4.5771 3.6719c.3905-.3905 1.0237-.3905 1.4142 0l2 2c.3905.3905.3905 1.0237 0 1.4142s-1.0237.3905-1.4142 0L12 14.4142V20c0 .5523-.4477 1-1 1s-1-.4477-1-1v-5.5858l-.2929.2929c-.3905.3905-1.0237.3905-1.4142 0s-.3905-1.0237 0-1.4142zm7.4142 9.4142 2-2c.3905-.3905.3905-1.0237 0-1.4142s-1.0237-.3905-1.4142 0L18 17.5858V12c0-.5523-.4477-1-1-1s-1 .4477-1 1v5.5858l-.2929-.2929c-.3905-.3905-1.0237-.3905-1.4142 0s-.3905 1.0237 0 1.4142l2 2c.3905.3905 1.0237.3905 1.4142 0"/></svg>
